assets/img/icon_chart.svg

<svg width="78" height="78" viewBox="0 0 78 78" version="1.1" xmlns="http://www.w3.org/2000/svg" xmlns:xlink="http://www.w3.org/1999/xlink">
<title>icon_chart</title>
<desc>Created using Figma</desc>
<g id="Canvas" transform="translate(-2530 -2205)">
<g id="icon_chart">
<g id="Ellipse">
<use xlink:href="#path0_fill" transform="translate(2530 2205)" fill="#FFFFFF"/>
</g>
<g id="004-pie-chart">
<g id="Group">
<g id="Group">
<g id="XMLID 83">
<use xlink:href="#path1_fill" transform="translate(2560.51 2233.56)" fill="url(#paint1_linear)"/>
</g>
<g id="Vector">
<use xlink:href="#path2_fill" transform="translate(2548.78 2226.67)" fill="url(#paint2_linear)"/>
</g>
<g id="Vector">
<use xlink:href="#path3_fill" transform="translate(2562.65 2257.25)" fill="url(#paint3_linear)"/>
</g>
<g id="Vector">
<use xlink:href="#path4_fill" transform="translate(2559.76 2232.79)" fill="url(#paint4_linear)"/>
</g>
<g id="Vector">
<use xlink:href="#path5_fill" transform="translate(2571.37 2231.01)" fill="url(#paint5_linear)"/>
</g>
</g>
</g>
</g>
</g>
</g>
<defs>
<linearGradient id="paint1_linear" x1="0" y1="0" x2="1" y2="0" gradientUnits="userSpaceOnUse" gradientTransform="matrix(16.1827 10.4523 -7.79089 183.734 7.46875 -78.9658)">
<stop offset="0" stop-color="#B721FF"/>
<stop offset="0.469613" stop-color="#C850C0"/>
<stop offset="1" stop-color="#FFCC70"/>
</linearGradient>
<linearGradient id="paint2_linear" x1="0" y1="0" x2="1" y2="0" gradientUnits="userSpaceOnUse" gradientTransform="matrix(40.6724 17.978 -19.5811 316.023 18.7715 -135.821)">
<stop offset="0" stop-color="#B721FF"/>
<stop offset="0.469613" stop-color="#C850C0"/>
<stop offset="1" stop-color="#FFCC70"/>
</linearGradient>
<linearGradient id="paint3_linear" x1="0" y1="0" x2="1" y2="0" gradientUnits="userSpaceOnUse" gradientTransform="matrix(13.7055 7.08077 -6.59828 124.468 6.32546 -53.4943)">
<stop offset="0" stop-color="#B721FF"/>
<stop offset="0.469613" stop-color="#C850C0"/>
<stop offset="1" stop-color="#FFCC70"/>
</linearGradient>
<linearGradient id="paint4_linear" x1="0" y1="0" x2="1" y2="0" gradientUnits="userSpaceOnUse" gradientTransform="matrix(17.6931 11.4279 -8.51804 200.883 8.16583 -86.336)">
<stop offset="0" stop-color="#B721FF"/>
<stop offset="0.469613" stop-color="#C850C0"/>
<stop offset="1" stop-color="#FFCC70"/>
</linearGradient>
<linearGradient id="paint5_linear" x1="0" y1="0" x2="1" y2="0" gradientUnits="userSpaceOnUse" gradientTransform="matrix(7.85897 5.07071 -3.78358 89.1346 3.62713 -38.3085)">
<stop offset="0" stop-color="#B721FF"/>
<stop offset="0.469613" stop-color="#C850C0"/>
<stop offset="1" stop-color="#FFCC70"/>
</linearGradient>
<path id="path0_fill" d="M 78 39C 78 60.5391 60.5391 78 39 78C 17.4609 78 0 60.5391 0 39C 0 17.4609 17.4609 0 39 0C 60.5391 0 78 17.4609 78 39Z"/>
<path id="path1_fill" d="M 16.092 8.34355L 8.04598 8.34355L 8.04598 1.30577e-07C 3.60625 1.30577e-07 -2.5184e-07 3.73106 -2.5184e-07 8.34355C -2.5184e-07 12.956 3.598 16.6871 8.04598 16.6871C 12.494 16.6871 16.092 12.956 16.092 8.34355Z"/>
<path id="path2_fill" d="M 39.6852 1.02013e-09L 0.750958 1.02013e-09C 0.338344 1.02013e-09 0 0.350857 0 0.778731C 0 1.20661 0.338344 1.55746 0.750958 1.55746L 2.19511 1.55746L 2.19511 26.5025C 2.19511 27.7177 3.14412 28.7018 4.31594 28.7018L 36.2853 28.7018C 37.4571 28.7018 38.4061 27.7177 38.4061 26.5025L 38.4061 1.5489L 39.6935 1.5489C 40.1061 1.5489 40.4444 1.19805 40.4444 0.770174C 40.4444 0.342299 40.0978 1.02013e-09 39.6852 1.02013e-09ZM 36.9042 26.5025C 36.9042 26.8619 36.6236 27.1443 36.2853 27.1443L 4.30769 27.1443C 3.9611 27.1443 3.68877 26.8534 3.68877 26.5025L 3.68877 1.5489L 36.9042 1.5489L 36.9042 26.5025Z"/>
<path id="path3_fill" d="M 0.216622 9.97803C -0.0722077 10.2775 -0.0722077 10.7739 0.216622 11.0734C 0.365163 11.2274 0.554967 11.3044 0.744769 11.3044C 0.934572 11.3044 1.12437 11.2274 1.27291 11.0734L 6.07574 6.09293L 6.07574 10.5257C 6.07574 10.9536 6.41409 11.3044 6.8267 11.3044C 7.23932 11.3044 7.57766 10.9536 7.57766 10.5257L 7.57766 6.09293L 12.3557 11.0477C 12.5043 11.2017 12.6941 11.2788 12.8839 11.2788C 13.0737 11.2788 13.2635 11.2017 13.412 11.0477C 13.7009 10.7482 13.7009 10.2519 13.412 9.95235L 7.57766 3.90221L 7.57766 1.55746L 10.5402 1.55746C 10.9528 1.55746 11.2912 1.2066 11.2912 0.77873C 11.2912 0.350856 10.9528 1.04461e-06 10.5402 1.04461e-06L 3.00589 1.04461e-06C 2.59328 1.04461e-06 2.25494 0.350856 2.25494 0.77873C 2.25494 1.2066 2.59328 1.55746 3.00589 1.55746L 6.084 1.55746L 6.084 3.90221L 0.216622 9.97803Z"/>
<path id="path4_fill" d="M 8.79694 18.2446C 13.6493 18.2446 17.5939 14.1541 17.5939 9.12228C 17.5939 8.6944 17.2555 8.34355 16.8429 8.34355L 9.54789 8.34355L 9.54789 0.778731C 9.54789 0.350857 9.20955 2.61154e-07 8.79694 2.61154e-07C 3.94459 2.61154e-07 5.03679e-07 4.09048 5.03679e-07 9.12228C 5.03679e-07 14.1541 3.94459 18.2446 8.79694 18.2446ZM 8.04598 1.59169L 8.04598 9.12228C 8.04598 9.55015 8.38432 9.90101 8.79694 9.90101L 16.0589 9.90101C 15.6793 13.7091 12.5682 16.6957 8.79694 16.6957C 4.76982 16.6957 1.50192 13.2983 1.50192 9.13084C 1.50192 5.21151 4.37371 1.98534 8.04598 1.59169Z"/>
<path id="path5_fill" d="M 0.750957 8.09538L 7.06395 8.09538C 7.47657 8.09538 7.81491 7.74452 7.81491 7.31665C 7.81491 5.52813 7.18774 3.80808 6.04892 2.46456C 4.7038 0.898536 2.77277 0 0.750957 0C 0.338343 0 -1.00736e-06 0.350857 -1.00736e-06 0.778731L -1.00736e-06 7.32521C -1.00736e-06 7.75308 0.330091 8.09538 0.750957 8.09538ZM 1.49366 1.60025C 2.80578 1.78851 4.02711 2.456 4.91836 3.50001C 5.65281 4.35576 6.11494 5.41689 6.26348 6.54648L 1.49366 6.54648L 1.49366 1.60025Z"/>
</defs>
</svg>

<svg width="78" height="78" xmlns="http://www.w3.org/2000/svg" xmlns:xlink="http://www.w3.org/1999/xlink"><use xlink:href="#path0_fill" fill="#FFF"/><use xlink:href="#path1_fill" transform="translate(30.51 28.56)" fill="url(#paint1_linear)"/><use xlink:href="#path2_fill" transform="translate(18.78 21.67)" fill="url(#paint2_linear)"/><use xlink:href="#path3_fill" transform="translate(32.65 52.25)" fill="url(#paint3_linear)"/><use xlink:href="#path4_fill" transform="translate(29.76 27.79)" fill="url(#paint4_linear)"/><use xlink:href="#path5_fill" transform="translate(41.37 26.01)" fill="url(#paint5_linear)"/><defs><linearGradient id="paint1_linear" x2="1" gradientUnits="userSpaceOnUse" gradientTransform="matrix(16.1827 10.4523 -7.79089 183.734 7.469 -78.966)"><stop offset="0" stop-color="#B721FF"/><stop offset=".47" stop-color="#C850C0"/><stop offset="1" stop-color="#FFCC70"/></linearGradient><linearGradient id="paint2_linear" x2="1" gradientUnits="userSpaceOnUse" gradientTransform="matrix(40.6724 17.978 -19.5811 316.023 18.771 -135.821)"><stop offset="0" stop-color="#B721FF"/><stop offset=".47" stop-color="#C850C0"/><stop offset="1" stop-color="#FFCC70"/></linearGradient><linearGradient id="paint3_linear" x2="1" gradientUnits="userSpaceOnUse" gradientTransform="matrix(13.7055 7.08077 -6.59828 124.468 6.325 -53.494)"><stop offset="0" stop-color="#B721FF"/><stop offset=".47" stop-color="#C850C0"/><stop offset="1" stop-color="#FFCC70"/></linearGradient><linearGradient id="paint4_linear" x2="1" gradientUnits="userSpaceOnUse" gradientTransform="matrix(17.6931 11.4279 -8.51804 200.883 8.166 -86.336)"><stop offset="0" stop-color="#B721FF"/><stop offset=".47" stop-color="#C850C0"/><stop offset="1" stop-color="#FFCC70"/></linearGradient><linearGradient id="paint5_linear" x2="1" gradientUnits="userSpaceOnUse" gradientTransform="matrix(7.85897 5.07071 -3.78358 89.1346 3.627 -38.309)"><stop offset="0" stop-color="#B721FF"/><stop offset=".47" stop-color="#C850C0"/><stop offset="1" stop-color="#FFCC70"/></linearGradient><path id="path0_fill" d="M78 39c0 21.54-17.46 39-39 39S0 60.54 0 39 17.46 0 39 0s39 17.46 39 39z"/><path id="path1_fill" d="M16.092 8.344H8.046V0C3.606 0 0 3.731 0 8.344c0 4.612 3.598 8.343 8.046 8.343 4.448 0 8.046-3.731 8.046-8.343z"/><path id="path2_fill" d="M39.685 0H.751C.338 0 0 .35 0 .779c0 .428.338.778.751.778h1.444v24.946c0 1.215.95 2.199 2.12 2.199h31.97c1.172 0 2.121-.984 2.121-2.2V1.55h1.288c.412 0 .75-.35.75-.779a.767.767 0 0 0-.759-.77zm-2.78 26.503a.63.63 0 0 1-.62.641H4.308a.63.63 0 0 1-.62-.641V1.549h33.216v24.954z"/><path id="path3_fill" d="M.217 9.978a.8.8 0 0 0 0 1.095.732.732 0 0 0 .528.231c.19 0 .38-.077.528-.23l4.803-4.981v4.433c0 .428.338.778.75.778.413 0 .752-.35.752-.778V6.093l4.778 4.955a.732.732 0 0 0 .528.23c.19 0 .38-.076.528-.23a.8.8 0 0 0 0-1.096l-5.834-6.05V1.557h2.962c.413 0 .751-.35.751-.778 0-.428-.338-.779-.75-.779H3.005c-.413 0-.751.35-.751.779 0 .428.338.778.75.778h3.079v2.345L.217 9.978z"/><path id="path4_fill" d="M8.797 18.245c4.852 0 8.797-4.09 8.797-9.123 0-.428-.338-.778-.751-.778H9.548V.779C9.548.35 9.21 0 8.797 0 3.945 0 0 4.09 0 9.122s3.945 9.123 8.797 9.123zM8.046 1.592v7.53c0 .428.338.779.75.779h7.263c-.38 3.808-3.49 6.795-7.262 6.795-4.027 0-7.295-3.398-7.295-7.565 0-3.92 2.872-7.146 6.544-7.54z"/><path id="path5_fill" d="M.751 8.095h6.313c.413 0 .75-.35.75-.778A7.5 7.5 0 0 0 6.05 2.465C4.704.899 2.773 0 .75 0 .338 0 0 .35 0 .779v6.546c0 .428.33.77.751.77zM1.494 1.6a5.546 5.546 0 0 1 3.424 1.9 5.838 5.838 0 0 1 1.345 3.046h-4.77V1.6z"/></defs></svg>
